svgs/light/arrows-maximize.svg

<svg xmlns="http://www.w3.org/2000/svg" viewBox="0 0 448 512"><!-- Font Awesome Pro 6.0.0-alpha2 by @fontawesome - https://fontawesome.com License - https://fontawesome.com/license (Commercial License) --><path d="M416 176V86.625L246.625 256L416 425.375V336C416 327.156 423.156 320 432 320S448 327.156 448 336V464C448 472.844 440.844 480 432 480H304C295.156 480 288 472.844 288 464S295.156 448 304 448H393.375L224 278.625L54.625 448H144C152.844 448 160 455.156 160 464S152.844 480 144 480H16C7.156 480 0 472.844 0 464V336C0 327.156 7.156 320 16 320S32 327.156 32 336V425.375L201.375 256L32 86.625V176C32 184.844 24.844 192 16 192S0 184.844 0 176V48C0 39.156 7.156 32 16 32H144C152.844 32 160 39.156 160 48S152.844 64 144 64H54.625L224 233.375L393.375 64H304C295.156 64 288 56.844 288 48S295.156 32 304 32H432C440.844 32 448 39.156 448 48V176C448 184.844 440.844 192 432 192S416 184.844 416 176Z"/></svg>

<svg xmlns="http://www.w3.org/2000/svg" viewBox="0 0 448 512"><!--! Font Awesome Pro 6.3.0 by @fontawesome - https://fontawesome.com License - https://fontawesome.com/license (Commercial License) Copyright 2023 Fonticons, Inc. --><path d="M416 176V86.63L246.6 256L416 425.4V336c0-8.844 7.156-16 16-16s16 7.156 16 16v128c0 8.844-7.156 16-16 16h-128c-8.844 0-16-7.156-16-16s7.156-16 16-16h89.38L224 278.6L54.63 448H144C152.8 448 160 455.2 160 464S152.8 480 144 480h-128C7.156 480 0 472.8 0 464v-128C0 327.2 7.156 320 16 320S32 327.2 32 336v89.38L201.4 256L32 86.63V176C32 184.8 24.84 192 16 192S0 184.8 0 176v-128C0 39.16 7.156 32 16 32h128C152.8 32 160 39.16 160 48S152.8 64 144 64H54.63L224 233.4L393.4 64H304C295.2 64 288 56.84 288 48S295.2 32 304 32h128C440.8 32 448 39.16 448 48v128C448 184.8 440.8 192 432 192S416 184.8 416 176z"/></svg>
